other/jetaudio.svg

<?xml version="1.0" encoding="UTF-8"?><svg id="b" xmlns="http://www.w3.org/2000/svg" viewBox="0 0 48 48"><defs><style>.c{fill:none;stroke:#fff;stroke-linecap:round;stroke-linejoin:round;}</style></defs><path class="c" d="m14.64,24.47c-2,.47-2.21-1.66.33-3.94,9.86-6.53,21.72-4.76,12.68,6.85l-2.59,2.87c2.21-7.39-4.27-8.54-10.42-5.78Z"/><path class="c" d="m12.1,26.21c-4.2733-.82-5.2833-3.23-3.03-7.23,4.2-6.48,12.01-11.2,21.86-10.75,10.73,1.6,11.95,7.54,8.35,12.77-2.64,4.04-8.09,7.18-14.96,10.6-1.2533,1.9467-2.9633,3.65-5.13,5.11-11.21,5.8-17.35-1.48-7.09-10.5Z"/></svg>

<svg xmlns="http://www.w3.org/2000/svg" viewBox="0 0 48 48"><defs><style>.a{fill:none;stroke:#fff;stroke-linecap:round;stroke-linejoin:round;}</style></defs> <path class="a"                       d="M14.64,24.47C12.64,24.94,12.43,22.81,14.97,20.53C24.83,14.00,36.69,15.77,27.65,27.38L25.06,30.25C27.27,22.86,20.79,21.71,14.64,24.47z"/> <path class="a"                       d="M12.10,26.21Q5.69,24.98,9.07,18.98C13.27,12.50,21.08,7.78,30.93,8.23C41.66,9.83,42.88,15.77,39.28,21.00C36.64,25.04,31.19,28.18,24.32,31.60Q22.44,34.52,19.19,36.71C7.98,42.51,1.84,35.23,12.10,26.21z"/></svg>
